images/optimaal-digitaal/icon-draagvlak.svg

<?xml version="1.0" encoding="UTF-8"?>
<svg width="104px" height="64px" viewBox="0 0 104 64" version="1.1" xmlns="http://www.w3.org/2000/svg" xmlns:xlink="http://www.w3.org/1999/xlink">
    <!-- Generator: Sketch 61.2 (89653) - https://sketch.com -->
    <title>icon-draagvlak</title>
    <desc>Created with Sketch.</desc>
    <g id="Page-1" stroke="none" stroke-width="1" fill="none" fill-rule="evenodd">
        <g id="Artboard" transform="translate(-10.000000, -841.000000)" fill="#FFFFFF">
            <g id="icon-draagvlak" transform="translate(10.000000, 841.000000)">
                <path d="M82.5552,11.6505 C77.1302,11.8205 73.0212,15.2605 73.2192,21.3635 C73.7132,36.5865 82.4922,28.8565 83.6322,46.0105 C83.6602,46.4445 83.5512,53.2635 83.4782,58.0775 C90.4342,55.7115 97.0042,52.6685 103.0882,49.0275 L102.9792,45.6235 C102.8552,41.7925 102.4662,39.5875 97.6382,38.6915 C92.0662,37.6575 86.8852,36.7605 89.2332,32.2365 C96.3812,18.4635 90.5712,11.4005 82.5552,11.6505 M88.9862,42.1255 C91.2052,43.0215 93.7762,43.4985 96.3042,43.9665 L96.5182,44.0065 C96.7782,44.0545 96.9822,44.1025 97.1392,44.1445 C97.1852,44.5205 97.2202,45.0745 97.2432,45.7995 L97.2512,46.0495 C94.6902,47.4655 92.0472,48.7705 89.3382,49.9575 C89.3842,46.6055 89.3802,45.9825 89.3592,45.6585 C89.2742,44.3805 89.1482,43.2075 88.9862,42.1255 M82.7312,17.0645 C83.8162,17.0315 85.2702,17.2245 86.0342,18.3405 C87.1402,19.9595 87.2092,23.8355 84.0802,29.8635 C83.9582,30.0975 83.8472,30.3295 83.7472,30.5575 C83.1632,29.9545 82.5572,29.3975 81.9432,28.8565 C80.1252,27.2565 79.1232,26.3765 78.9552,21.1845 C78.8672,18.4575 80.0672,17.1475 82.7312,17.0645" id="Fill-1"></path>
                <path d="M49.9962,0.504 C39.1032,0.844 32.1712,11.094 42.8912,28.447 C46.5112,34.307 39.4372,35.934 32.2672,37.734 C25.9302,39.327 25.5972,42.284 25.7622,47.384 L27.1652,61.681 C35.1412,63.286 43.4792,64.024 52.0492,63.756 C60.6182,63.488 68.8922,62.233 76.7482,60.135 C76.8792,56.164 77.2232,45.794 77.2232,45.794 C77.0572,40.688 76.5372,37.752 70.1012,36.559 C62.6772,35.181 55.7652,33.985 58.8972,27.952 C68.4332,9.59 60.6792,0.171 49.9962,0.504 M50.1722,5.918 C52.1112,5.858 54.7392,6.247 56.2422,8.444 C58.5202,11.775 57.5872,18.181 53.7452,25.578 C51.6472,29.619 52.3652,32.676 53.3362,34.528 C55.9182,39.451 62.4132,40.655 68.6952,41.82 L68.9812,41.874 C70.4282,42.142 70.9662,42.437 71.0972,42.522 C71.2882,42.909 71.4172,44.015 71.4812,45.81 L71.1462,55.916 C64.8452,57.324 58.3802,58.139 51.8732,58.342 C45.3662,58.545 38.8622,58.135 32.4822,57.122 L31.4932,47.041 C31.4402,45.253 31.4972,44.146 31.6632,43.747 C31.7882,43.654 32.3052,43.327 33.7292,42.969 L34.1802,42.857 C40.3222,41.317 46.6742,39.725 48.9122,34.625 C49.7542,32.705 50.2542,29.601 47.8502,25.71 C43.5132,18.689 42.1562,12.398 44.2192,8.882 C45.5922,6.543 48.2142,5.98 50.1722,5.918" id="Fill-4"></path>
                <path d="M18.2335,13.6574 C10.2175,13.9074 4.8775,21.3184 12.9065,34.6174 C15.5435,38.9904 10.4305,40.2034 4.9375,41.5834 C0.1715,42.7774 -0.0735,45.0034 0.0505,48.8344 C0.0505,48.8344 0.1265,51.1264 0.1635,52.2414 C6.4715,55.4954 13.2275,58.1234 20.3245,60.0504 C19.9395,55.1944 19.3825,48.2684 19.3865,47.7864 C19.4975,30.8874 28.6715,37.9274 28.1795,22.7684 C27.9815,16.6654 23.6585,13.4884 18.2335,13.6574 M13.7895,44.4734 C13.7045,45.4904 13.6555,46.5844 13.6475,47.7664 C13.6455,48.1224 13.6905,48.8694 13.9575,52.3144 C11.1725,51.2984 8.4465,50.1604 5.7955,48.9044 L5.7865,48.6554 C5.7635,47.9284 5.7615,47.3744 5.7825,46.9954 C5.9395,46.9424 6.1415,46.8834 6.4005,46.8174 L6.6225,46.7614 C9.1085,46.1374 11.6365,45.5034 13.7895,44.4734 M18.4085,19.0714 C21.0735,18.9884 22.3555,20.2194 22.4435,22.9474 C22.6115,28.1414 21.6695,29.0834 19.9595,30.7934 C19.3825,31.3694 18.8155,31.9624 18.2725,32.5984 C18.1565,32.3784 18.0315,32.1534 17.8945,31.9264 C14.3805,26.1064 14.1965,22.2334 15.1955,20.5504 C15.8855,19.3884 17.3235,19.1044 18.4085,19.0714" id="Fill-6"></path>
            </g>
        </g>
    </g>
</svg>

<svg height="120" viewBox="0 0 120 120" width="120" xmlns="http://www.w3.org/2000/svg"><g fill="#fff" fill-rule="evenodd" transform="translate(8 28)"><path d="m82.5552 11.6505c-5.425.17-9.534 3.61-9.336 9.713.494 15.223 9.273 7.493 10.413 24.647.028.434-.081 7.253-.154 12.067 6.956-2.366 13.526-5.409 19.61-9.05l-.109-3.404c-.124-3.831-.513-6.036-5.341-6.932-5.572-1.034-10.753-1.931-8.405-6.455 7.148-13.773 1.338-20.836-6.678-20.586m6.431 30.475c2.219.896 4.79 1.373 7.318 1.841l.214.04c.26.048.464.096.621.138.046.376.081.93.104 1.655l.008.25c-2.561 1.416-5.204 2.721-7.913 3.908.046-3.352.042-3.975.021-4.299-.085-1.278-.211-2.451-.373-3.533m-6.255-25.061c1.085-.033 2.539.16 3.303 1.276 1.106 1.619 1.175 5.495-1.954 11.523-.122.234-.233.466-.333.694-.584-.603-1.19-1.16-1.804-1.701-1.818-1.6-2.82-2.48-2.988-7.672-.088-2.727 1.112-4.037 3.776-4.12"/><path d="m49.9962.504c-10.893.34-17.825 10.59-7.105 27.943 3.62 5.86-3.454 7.487-10.624 9.287-6.337 1.593-6.67 4.55-6.505 9.65l1.403 14.297c7.976 1.605 16.314 2.343 24.884 2.075 8.569-.268 16.843-1.523 24.699-3.621.131-3.971.475-14.341.475-14.341-.166-5.106-.686-8.042-7.122-9.235-7.424-1.378-14.336-2.574-11.204-8.607 9.536-18.362 1.782-27.781-8.901-27.448m.176 5.414c1.939-.06 4.567.329 6.07 2.526 2.278 3.331 1.345 9.737-2.497 17.134-2.098 4.041-1.38 7.098-.409 8.95 2.582 4.923 9.077 6.127 15.359 7.292l.286.054c1.447.268 1.985.563 2.116.648.191.387.32 1.493.384 3.288l-.335 10.106c-6.301 1.408-12.766 2.223-19.273 2.426s-13.011-.207-19.391-1.22l-.989-10.081c-.053-1.788.004-2.895.17-3.294.125-.093.642-.42 2.066-.778l.451-.112c6.142-1.54 12.494-3.132 14.732-8.232.842-1.92 1.342-5.024-1.062-8.915-4.337-7.021-5.694-13.312-3.631-16.828 1.373-2.339 3.995-2.902 5.953-2.964"/><path d="m18.2335 13.6574c-8.016.25-13.356 7.661-5.327 20.96 2.637 4.373-2.476 5.586-7.969 6.966-4.766 1.194-5.011 3.42-4.887 7.251 0 0 .076 2.292.113 3.407 6.308 3.254 13.064 5.882 20.161 7.809-.385-4.856-.942-11.782-.938-12.264.111-16.899 9.285-9.859 8.793-25.018-.198-6.103-4.521-9.28-9.946-9.111m-4.444 30.816c-.085 1.017-.134 2.111-.142 3.293-.002.356.043 1.103.31 4.548-2.785-1.016-5.511-2.154-8.162-3.41l-.009-.249c-.023-.727-.025-1.281-.004-1.66.157-.053.359-.112.618-.178l.222-.056c2.486-.624 5.014-1.258 7.167-2.288m4.619-25.402c2.665-.083 3.947 1.148 4.035 3.876.168 5.194-.774 6.136-2.484 7.846-.577.576-1.144 1.169-1.687 1.805-.116-.22-.241-.445-.378-.672-3.514-5.82-3.698-9.693-2.699-11.376.69-1.162 2.128-1.446 3.213-1.479"/></g></svg>
